!!!COM: Berg, Alban (Maria Johannes)
!!!OTL: Lyrische Suite (Lyric Suite) for String Quartet
!!!OMV: II: Andante amoroso
!!!example: 449
!!!work: Ber-13
**kern	**kern	**dynam	**kern	**kern	**dynam
*part4	*part3	*part3	*part2	*part1	*part1
*staff4	*staff3	*	*staff2	*staff1	*
*I"Violoncello	*I"Viola	*	*I"Violin II	*I"Violin I	*
*I'Vc.	*I'Vla.	*	*I'Vln. II	*I'Vln. I	*
*clefF4	*clefC3	*	*clefG2	*clefG2	*
*k[]	*k[]	*	*k[]	*k[]	*
*C:	*C:	*	*C:	*C:	*
*M3/8	*M3/8	*	*M3/8	*M3/8	*
*MM104	*MM104	*	*MM104	*MM104	*
=130	=	=	=	=	=
8Bn'L	8cL 8cc	.	(16bb-XLL	4.r	.
.	.	.	16gg-XJJ)	.	.
.	(8qC/	f	.	.	.
(16AnL	8c'^) 8cc	.	16r	.	.
16gnJ	.	.	(16ddd-XLL	.	.
8e-XJ)	[8cJ [8cc	fp	16bb-X	.	.
.	.	.	16aa-XJJ	.	.
=131	=131	=131	=131	=131	=131
!LO:TX:i:t=meno f	!	!	!	!	!
8Bn'L	8c] 8cc]	.	16bb-XLL	(4.fffn	p
.	.	.	16gg-XJJ)	.	.
(16AnL	8r	.	16r	.	.
16gnJ	.	.	(16ddd-XLL	.	.
.	(8qC/	f	.	.	.
8e-XJ)	8c'^) 8cc	.	16bb-X	.	.
.	.	.	16aa-XJJ	.	.
=132	=132	=132	=132	=132	=132
8Bn'L	4c 4cc	fp	16bb-XLL	[4.eeen	.
.	.	.	16gg-XJJ)	.	.
(16AnL	.	.	16r	.	.
16gnJ	.	.	(16ddd-XLL	.	.
8e-XJ)	8r	.	16bb-X	.	.
.	.	.	16aa-XJJ	.	.
=133	=133	=133	=133	=133	=133
.	(8qC/	f	.	.	.
(16AnLL	8c'^) 8cc	.	16bb-XLL	8.eeeL])	.
16gnJ	.	.	16gg-XJJ)	.	.
8e-X)	4c 4cc	fp	16r	.	.
.	.	.	(16ddd-XLL	(8.gggnJ	<
!LO:TX:i:t=poco f	!	!	!	!	!
(16BnL	.	.	16bb-X	.	.
16anJJ	.	.	16aa-XJJ	.	.
=134	=134	=134	=134	=134	=134
8fnL)	8r	.	16bb-XLL	4.eeen	[[
.	.	.	16gg-XJJ)	.	.
!LO:TX:i:t=meno f	!	!	!	!	!
.	(8qC/	f	.	.	.
(16BnL	8c'^L) 8cc	.	16r	.	.
16anJ	.	.	(16ddd-XLL	.	.
8fnJ)	[8cJ [8cc	fp	16bb-X	.	.
.	.	.	16aa-XJJ	.	.
=135	=135	=135	=135	=135	=135
8r	8c] 8cc]	.	16bb-XLL	[4.ccc#X	[
.	.	.	16gg-XJJ)	.	.
(16BnLL	8r	.	16r	.	.
!	!	!	!LO:TX:i:t=poco f	!	!
16anJ	.	.	(16ggnLL	.	.
8fnJ)	8cn'^ 8ccn	f	16ee-X	.	.
.	.	.	16ddnJJ	.	.
=136	=136	=136	=136	=136	=136
!!linebreak:original
8r	(16cLL	.	16ee-XLL	4.ccc#])	[[
.	16c#XJ	.	16cc-XJJ)	.	.
!LO:TX:i:t=poco f	!	!	!	!	!
(16B-XLL	8e#XJ)	.	16r	.	.
!	!	!	!LO:TX:i:t=meno f	!	!
16a-XJ	.	.	(16ggLL	.	.
8f-XJ)	16r	.	16ee-	.	.
.	[16f#X'^	.	16ddJJ	.	.
=137	=137	=137	=137	=137	=137
8r	16f#LL]	.	16ee-XLL	(4.dddn	[
.	(16f#X	.	16cc-XJJ)	.	.
(16AnLL	16gnJ	.	16r	.	.
!	!	!	!LO:TX:i:t=poco f	!	!
16gnJ	8bnJ)	.	(16ff#XLL	.	.
8e-XJ)	.	.	16ddn	.	.
.	16r	.	16cc#XJJ	.	.
*	*clefG2	*	*	*	*
=138	=138	=138	=138	=138	=138
8r	8ccn'^L	.	16ddnLL	8.fffnL	.
.	.	.	16b-XJJ)	.	.
!LO:TX:i:t=meno f	!	!	!	!	!
(16AnLL	(16ccL	.	16r	.	.
!	!	!	!LO:TX:i:t=meno f	!	!
16gnJ	16cc#XJ	.	(16ff#XLL	8.eeenJ	.
[8e-XJ	8ff#XJ)	.	16ddn	.	.
.	.	.	16cc#XJJ	.	.
=139	=139	=139	=139	=139	=139
!!pagebreak:original
16e-])	8cccn'^	.	16ddnLL	8.ccc#XL	.
16r	.	.	16b-XJJ)	.	.
!LO:TX:t=dim.	!	!	!	!	!
(16EnLL	4ccc~	]]	16r	.	.
16dnJ	.	.	16r	8.gggnJ)	[
!	!	!	!LO:TX:t=dim.	!	!
[8B-XJ	.	.	(16aanLL	.	.
.	.	.	16ffnJJ	.	.
=140	=140	=140	=140	=140	=140
16B-])	8r	]	16eenLL	([4.aa-X	>
16r	.	.	16ffnJ	.	.
(16C#XLL	8ccn'^L	f	8ddnJ)	.	.
16BnJ	.	.	.	.	.
[8GnJ	[8cc~J	>	8r	.	.
=141	=141	=141	=141	=141	=141
8G])	8cc]	.	(16ddnLL	4.aa-_	.
.	.	.	16cc#X	.	.
8r	8r	.	16ddJ	.	.
.	.	.	8b-XJ)	.	.
*	*clefC3	*	*	*	*
(16C#XLL	8cn'^	]	.	.	.
16BnJJ	.	.	16r	.	.
=142	=142	=142	=142	=142	=142
4Gn)	[4cn	>	8r	4.aa-])	]]
.	.	.	(16g-XLL	.	.
.	.	.	16anJ	.	.
16r	8r	]	[8fnJ)	.	.
[16D-X	.	.	.	.	.
==	==	==	==	==	==
*-	*-	*-	*-	*-	*-
!!!CDT: 1885/02/09-1935/12/24
!!!CBL: Vienna, Austria
!!!CDL: Vienna, Austria
!!!CNT: Austrian
!!!AGN: Instrumental; Chamber
!!!MCN:
!!!MDT: 1927/01/08
!!!MGN: Kolisch Quartet
!!!MLC: Vienna, Austria
!!!MPD: 1927
!!!MPN: Kolisch, Rudolph
!!!ODT: 1926
!!!PDT: 1927
!!!excerpt-start-measure: 130
!!!excerpt-end-measure: 142
!!!excerpt-start-time: 5:11
!!!excerpt-end-time: 5:25
!!!EEV: 2020/01/17
!!!system-decoration: [(s1,s2,s3,s4)]
!!!ONB: Converted from MusicXML on 2020/01/17
